images/UpgradeGraphics/BCHUpgrades_Icons/15.svg

<svg xmlns="http://www.w3.org/2000/svg" fill="none" viewBox="0 0 605 714" xmlns:v="https://vecta.io/nano"><rect width="344.386" height="344.386" rx="62" transform="matrix(.878374 .477974 -.878374 .477974 302.5 384.784)" fill="url(#A)"/><rect width="344.386" height="344.386" rx="62" transform="matrix(.878374 .477974 -.878374 .477974 302.5 350.185)" fill="url(#B)"/><rect width="344.386" height="344.386" rx="62" transform="matrix(.878374 .477974 -.878374 .477974 302.5 286.229)" fill="url(#C)"/><rect width="344.386" height="344.386" rx="62" transform="matrix(.878374 .477974 -.878374 .477974 302.5 239.049)" fill="url(#D)"/><ellipse cx="92.037" cy="87.072" rx="92.037" ry="87.072" transform="matrix(.677975 .735085 -.343149 .939281 326.5 155.172)" fill="#13b3d3"/><ellipse cx="92.037" cy="87.072" rx="92.037" ry="87.072" transform="matrix(.677975 .735085 -.343149 .939281 301.156 156.926)" fill="#13edb1"/><ellipse cx="92.037" cy="87.072" rx="92.037" ry="87.072" transform="matrix(.677975 .735085 -.343149 .939281 287.562 166.704)" fill="#13b3d3"/><ellipse cx="92.037" cy="87.072" rx="92.037" ry="87.072" transform="matrix(.677975 .735085 -.343149 .939281 262.219 168.458)" fill="#13edb1"/><ellipse cx="92.037" cy="87.072" rx="92.037" ry="87.072" transform="matrix(.677975 .735085 -.343149 .939281 239.727 180.335)" fill="#13b3d3"/><path d="M302.601 269.454c0-20.438-3.4-41.89-9.453-59.635s-14.261-30.331-22.82-34.989-16.768-1.005-22.821 10.153-9.452 28.909-9.452 49.347l8.938 4.864c0-14.778 2.458-27.612 6.835-35.68s10.311-10.709 16.5-7.341 12.124 12.468 16.5 25.298 6.835 28.341 6.835 43.119l8.938 4.864z" fill="#fff"/><ellipse cx="92.037" cy="87.072" rx="92.037" ry="87.072" transform="matrix(.677975 .735085 -.343149 .939281 214.383 182.089)" fill="#13edb1"/><path d="M241.276 287.271v-20.76l7.062 3.843v20.76l-7.062-3.843zm-14.019-7.629v-20.76l7.062 3.843v20.76l-7.062-3.843zm14.019 96.429v-20.76l7.062 3.843v20.76l-7.062-3.843zm-14.019-7.629v-20.76l7.062 3.843v20.76l-7.062-3.843zM216.4 350.774v-85.68l18.13 9.866c6.043 3.288 11.068 6.742 15.073 10.362 4.076 3.578 7.132 7.521 9.17 11.83 2.108 4.267 3.162 9.081 3.162 14.441 0 3.2-.351 5.928-1.054 8.186s-1.721 3.863-3.056 4.817-2.952 1.154-4.849.601v.6c2.038 1.669 3.865 3.663 5.481 5.983s2.916 5.107 3.9 8.362 1.476 7.123 1.476 11.603c0 5.2-.984 9.145-2.952 11.834-1.967 2.609-4.813 3.901-8.537 3.874-3.654-.068-8.011-1.479-13.071-4.232L216.4 350.774zm19.922-40.879c3.514 1.912 5.938 2.391 7.273 1.438s2.003-3.031 2.003-6.231c0-3.28-.808-6.079-2.425-8.399s-4.181-4.435-7.694-6.347l-3.162-1.721v19.08l4.005 2.18zm-4.005 12.22v22.32l5.164 2.811c3.655 1.988 6.184 2.325 7.59 1.01 1.475-1.357 2.213-3.796 2.213-7.316 0-2.16-.316-4.212-.949-6.156s-1.721-3.777-3.267-5.498c-1.476-1.683-3.514-3.232-6.114-4.647l-4.637-2.524z" fill="#fff"/><path transform="matrix(.878374 .477974 -.878374 .477974 302.5 0)" fill="url(#E)" d="M0 0h287.399v287.31H0z"/><path transform="matrix(.878374 .477974 0 1 50.0625 137.348)" fill="url(#F)" d="M0 0h287.399v274.653H0z"/><path transform="matrix(.878374 -.477974 0 1 302.578 274.718)" fill="url(#F)" d="M0 0h287.399v274.653H0z"/><defs><linearGradient id="A" x1="215.827" y1="344.386" x2="214.38" y2="-.36" href="#G"><stop stop-color="#13b3d3" stop-opacity=".12"/></linearGradient><linearGradient id="B" x1="215.827" y1="344.386" x2="214.38" y2="-.36" href="#G"><stop stop-color="#13edb1" stop-opacity=".42"/></linearGradient><linearGradient id="C" x1="215.827" y1="344.386" x2="214.38" y2="-.36" href="#G"><stop stop-color="#13b3d3"/></linearGradient><linearGradient id="D" x1="13.206" y1="152.466" x2="319.793" y2="109.9" href="#G"><stop stop-color="#13b3d3"/><stop offset="1" stop-color="#13edb1"/></linearGradient><linearGradient id="E" x1="11.021" y1="127.197" x2="266.872" y2="91.664" href="#G"><stop stop-color="#13b3d3" stop-opacity=".22"/><stop offset="1" stop-color="#13edb1" stop-opacity=".35"/></linearGradient><linearGradient id="F" x1="11.021" y1="121.594" x2="266.416" y2="84.49" href="#G"><stop stop-color="#13b3d3" stop-opacity=".22"/><stop offset="1" stop-color="#13edb1" stop-opacity=".35"/></linearGradient><linearGradient id="G" gradientUnits="userSpaceOnUse"/></defs></svg>

<svg xmlns="http://www.w3.org/2000/svg" fill="none" viewBox="0 0 605 714">
<g id="Group 77">
<rect id="Rectangle 242" width="344.386" height="344.386" rx="62" transform="matrix(0.878374 0.477974 -0.878374 0.477974 302.5 384.784)" fill="url(#paint0_linear_137_43)"/>
<rect id="Rectangle 243" width="344.386" height="344.386" rx="62" transform="matrix(0.878374 0.477974 -0.878374 0.477974 302.5 350.185)" fill="url(#paint1_linear_137_43)"/>
<rect id="Rectangle 241" width="344.386" height="344.386" rx="62" transform="matrix(0.878374 0.477974 -0.878374 0.477974 302.5 286.229)" fill="url(#paint2_linear_137_43)"/>
<rect id="Rectangle 240" width="344.386" height="344.386" rx="62" transform="matrix(0.878374 0.477974 -0.878374 0.477974 302.5 239.049)" fill="url(#paint3_linear_137_43)"/>
<g id="Group 76">
<ellipse id="Ellipse 41" cx="92.0365" cy="87.0722" rx="92.0365" ry="87.0722" transform="matrix(0.677975 0.735085 -0.343149 0.939281 326.5 155.172)" fill="#13B3D3"/>
<ellipse id="Ellipse 40" cx="92.0365" cy="87.0722" rx="92.0365" ry="87.0722" transform="matrix(0.677975 0.735085 -0.343149 0.939281 301.156 156.926)" fill="#13EDB1"/>
</g>
<g id="Group 75">
<ellipse id="Ellipse 41_2" cx="92.0365" cy="87.0722" rx="92.0365" ry="87.0722" transform="matrix(0.677975 0.735085 -0.343149 0.939281 287.562 166.704)" fill="#13B3D3"/>
<ellipse id="Ellipse 40_2" cx="92.0365" cy="87.0722" rx="92.0365" ry="87.0722" transform="matrix(0.677975 0.735085 -0.343149 0.939281 262.219 168.458)" fill="#13EDB1"/>
</g>
<ellipse id="Ellipse 41_3" cx="92.0365" cy="87.0722" rx="92.0365" ry="87.0722" transform="matrix(0.677975 0.735085 -0.343149 0.939281 239.727 180.335)" fill="#13B3D3"/>
<path id="Ellipse 42" d="M302.601 269.454C302.601 249.016 299.201 227.564 293.148 209.819C287.096 192.074 278.887 179.488 270.328 174.83C261.768 170.173 253.56 173.825 247.507 184.983C241.455 196.141 238.055 213.892 238.055 234.33L246.993 239.194C246.993 224.416 249.451 211.582 253.828 203.514C258.204 195.446 264.139 192.805 270.328 196.173C276.517 199.541 282.452 208.641 286.828 221.471C291.204 234.302 293.663 249.812 293.663 264.59L302.601 269.454Z" fill="white"/>
<ellipse id="Ellipse 40_3" cx="92.0365" cy="87.0722" rx="92.0365" ry="87.0722" transform="matrix(0.677975 0.735085 -0.343149 0.939281 214.383 182.089)" fill="#13EDB1"/>
<g id="â¿" filter="url(#filter0_d_137_43)">
<path d="M241.276 287.271V266.511L248.338 270.354V291.114L241.276 287.271ZM227.257 279.642V258.882L234.319 262.725V283.485L227.257 279.642ZM241.276 376.071V355.311L248.338 359.154V379.914L241.276 376.071ZM227.257 368.442V347.682L234.319 351.525V372.285L227.257 368.442ZM216.4 350.774V265.094L234.53 274.96C240.573 278.248 245.598 281.702 249.603 285.322C253.679 288.9 256.735 292.843 258.773 297.152C260.881 301.419 261.935 306.233 261.935 311.593C261.935 314.793 261.584 317.521 260.881 319.779C260.179 322.037 259.16 323.642 257.825 324.596C256.489 325.549 254.873 325.75 252.976 325.197V325.797C255.014 327.466 256.841 329.46 258.457 331.78C260.073 334.099 261.373 336.887 262.357 340.142C263.341 343.397 263.833 347.265 263.833 351.745C263.833 356.945 262.849 360.89 260.881 363.579C258.914 366.188 256.068 367.48 252.344 367.453C248.69 367.385 244.333 365.974 239.273 363.221L216.4 350.774ZM236.322 309.895C239.836 311.807 242.26 312.286 243.595 311.333C244.93 310.379 245.598 308.302 245.598 305.102C245.598 301.822 244.79 299.023 243.173 296.703C241.557 294.384 238.992 292.268 235.479 290.356L232.317 288.635V307.715L236.322 309.895ZM232.317 322.115V344.435L237.481 347.246C241.136 349.234 243.665 349.571 245.071 348.256C246.546 346.899 247.284 344.46 247.284 340.94C247.284 338.78 246.968 336.728 246.335 334.784C245.703 332.84 244.614 331.007 243.068 329.286C241.592 327.603 239.554 326.054 236.954 324.639L232.317 322.115Z" fill="white"/>
</g>
<g id="Group 73">
<rect id="Rectangle 244" width="287.399" height="287.31" transform="matrix(0.878374 0.477974 -0.878374 0.477974 302.5 0)" fill="url(#paint4_linear_137_43)"/>
<rect id="Rectangle 247" width="287.399" height="274.653" transform="matrix(0.878374 0.477974 0 1 50.0625 137.348)" fill="url(#paint5_linear_137_43)"/>
<rect id="Rectangle 248" width="287.399" height="274.653" transform="matrix(0.878374 -0.477974 0 1 302.578 274.718)" fill="url(#paint6_linear_137_43)"/>
</g>
</g>
<defs>
<filter id="filter0_d_137_43" x="212.398" y="252.975" width="55.4375" height="143.37" filterUnits="userSpaceOnUse" color-interpolation-filters="sRGB">
<feFlood flood-opacity="0" result="BackgroundImageFix"/>
<feColorMatrix in="SourceAlpha" type="matrix" values="0 0 0 0 0 0 0 0 0 0 0 0 0 0 0 0 0 0 127 0" result="hardAlpha"/>
<feOffset dy="4"/>
<feGaussianBlur stdDeviation="2"/>
<feComposite in2="hardAlpha" operator="out"/>
<feColorMatrix type="matrix" values="0 0 0 0 0 0 0 0 0 0 0 0 0 0 0 0 0 0 0.25 0"/>
<feBlend mode="normal" in2="BackgroundImageFix" result="effect1_dropShadow_137_43"/>
<feBlend mode="normal" in="SourceGraphic" in2="effect1_dropShadow_137_43" result="shape"/>
</filter>
<linearGradient id="paint0_linear_137_43" x1="215.827" y1="344.386" x2="214.38" y2="-0.360091" gradientUnits="userSpaceOnUse">
<stop stop-color="#13B3D3" stop-opacity="0.12"/>
</linearGradient>
<linearGradient id="paint1_linear_137_43" x1="215.827" y1="344.386" x2="214.38" y2="-0.360091" gradientUnits="userSpaceOnUse">
<stop stop-color="#13EDB1" stop-opacity="0.42"/>
</linearGradient>
<linearGradient id="paint2_linear_137_43" x1="215.827" y1="344.386" x2="214.38" y2="-0.360091" gradientUnits="userSpaceOnUse">
<stop stop-color="#13B3D3"/>
</linearGradient>
<linearGradient id="paint3_linear_137_43" x1="13.2057" y1="152.466" x2="319.793" y2="109.9" gradientUnits="userSpaceOnUse">
<stop stop-color="#13B3D3"/>
<stop offset="1" stop-color="#13EDB1"/>
</linearGradient>
<linearGradient id="paint4_linear_137_43" x1="11.0205" y1="127.197" x2="266.872" y2="91.664" gradientUnits="userSpaceOnUse">
<stop stop-color="#13B3D3" stop-opacity="0.22"/>
<stop offset="1" stop-color="#13EDB1" stop-opacity="0.35"/>
</linearGradient>
<linearGradient id="paint5_linear_137_43" x1="11.0205" y1="121.594" x2="266.416" y2="84.4896" gradientUnits="userSpaceOnUse">
<stop stop-color="#13B3D3" stop-opacity="0.22"/>
<stop offset="1" stop-color="#13EDB1" stop-opacity="0.35"/>
</linearGradient>
<linearGradient id="paint6_linear_137_43" x1="11.0205" y1="121.594" x2="266.416" y2="84.4896" gradientUnits="userSpaceOnUse">
<stop stop-color="#13B3D3" stop-opacity="0.22"/>
<stop offset="1" stop-color="#13EDB1" stop-opacity="0.35"/>
</linearGradient>
</defs>
</svg>
